public/svg/heart.svg

<svg height="28" viewBox="0 0 29 28" width="29" xmlns="http://www.w3.org/2000/svg" xmlns:xlink="http://www.w3.org/1999/xlink"><linearGradient id="a" x1="50%" x2="50%" y1="-5.427969%" y2="103.104457%"><stop offset="0" stop-color="#4dbbed"/><stop offset="1" stop-color="#5c6ddd"/></linearGradient><path d="m14.5 26.4795082c-.4134766 0-.8099609-.1484083-1.1214844-.422393-1.1724609-1.0331504-2.2996094-2.0035126-3.2964844-2.8597146l-.005664-.005708c-2.92265626-2.5058178-5.44316408-4.6748628-7.19902345-6.8096597-1.96542969-2.3859495-2.87734375-4.6463227-2.87734375-7.11789243 0-2.40307355.815625-4.61778266 2.29960938-6.2388584 1.50097656-1.64390779 3.56269531-2.54577387 5.8-2.54577387 1.67656249 0 3.20585932.53084522 4.55390622 1.58682766.6796875.53084522 1.2970703 1.18155873 1.8408203 1.94072448.54375-.75916575 1.1611328-1.40987926 1.8408203-1.94072448 1.359375-1.05598244 2.8886719-1.58682766 4.5652344-1.58682766 2.2373047 0 4.2990235.90186608 5.8 2.54577387 1.4839844 1.62107574 2.2996094 3.83578485 2.2996094 6.2388584 0 2.47156973-.9119141 4.73194293-2.8773438 7.11789243-1.7558593 2.1347969-4.2763671 4.3038419-7.1990234 6.8096597-.996875.856202-2.1296875 1.8265642-3.3021484 2.8654226-.3115235.2739847-.7080078.422393-1.1214844.422393zm-6.40039062-24.28759605c-1.75585938 0-3.37578125.70779363-4.54824219 1.9920966-1.19511719 1.30713501-1.85214844 3.10515916-1.85214844 5.08013172 0 2.07771683.76464844 3.93852913 2.48652344 6.02766193 1.65957031 2.0206366 4.13476562 4.1440175 6.99511721 6.5984632l.005664.005708c1.0025391.86191 2.1353516 1.8322722 3.3134766 2.8711306 1.1894531-1.0445664 2.3222656-2.0149286 3.3248047-2.8768386 2.8603516-2.4601537 5.3298828-4.5778266 6.9951172-6.5984632 1.7162109-2.0891328 2.4865234-3.9499451 2.4865234-6.02766193 0-1.96926455-.6570312-3.77299671-1.8521484-5.08013172-1.178125-1.28430297-2.7980469-1.9920966-4.5539063-1.9920966-1.2914062 0-2.4751953.41097695-3.5173828 1.22722283-.9289062.72491767-1.5802734 1.64390779-1.9597656 2.28320527-.1982422.33106476-.538086.52513721-.9232422.52513721-.3851563 0-.725-.19978046-.9232422-.52513721-.3794922-.63929748-1.0308594-1.5582876-1.9597656-2.28320527-1.0421875-.81624588-2.22597657-1.22722283-3.51738282-1.22722283z" fill="url(#a)" transform="translate(0 .520492)"/></svg>

<?xml version="1.0" encoding="UTF-8"?>
<svg width="29px" height="28px" viewBox="0 0 29 28" version="1.1" xmlns="http://www.w3.org/2000/svg" xmlns:xlink="http://www.w3.org/1999/xlink">
    <title>heart</title>
    <defs>
        <linearGradient x1="50%" y1="-5.42796926%" x2="50%" y2="103.104457%" id="linearGradient-1">
            <stop stop-color="#4DBBED" offset="0%"></stop>
            <stop stop-color="#5C6DDD" offset="100%"></stop>
        </linearGradient>
    </defs>
    <g id="Page-1" stroke="none" stroke-width="1" fill="none" fill-rule="evenodd">
        <g id="workers-desktop" transform="translate(-843.000000, -647.000000)" fill="url(#linearGradient-1)" fill-rule="nonzero">
            <g id="heart" transform="translate(843.000000, 647.520492)">
                <path d="M14.5,26.4795082 C14.0865234,26.4795082 13.6900391,26.3310999 13.3785156,26.0571152 C12.2060547,25.0239648 11.0789062,24.0536026 10.0820312,23.1974006 L10.0763672,23.1916926 C7.15371094,20.6858748 4.63320312,18.5168298 2.87734375,16.3820329 C0.911914063,13.9960834 0,11.7357102 0,9.26414047 C0,6.86106692 0.815625,4.64635781 2.29960938,3.02528207 C3.80058594,1.38137428 5.86230469,0.479508197 8.09960938,0.479508197 C9.77617187,0.479508197 11.3054687,1.01035342 12.6535156,2.06633586 C13.3332031,2.59718108 13.9505859,3.24789459 14.4943359,4.00706034 C15.0380859,3.24789459 15.6554687,2.59718108 16.3351562,2.06633586 C17.6945312,1.01035342 19.2238281,0.479508197 20.9003906,0.479508197 C23.1376953,0.479508197 25.1994141,1.38137428 26.7003906,3.02528207 C28.184375,4.64635781 29,6.86106692 29,9.26414047 C29,11.7357102 28.0880859,13.9960834 26.1226562,16.3820329 C24.3667969,18.5168298 21.8462891,20.6858748 18.9236328,23.1916926 C17.9267578,24.0478946 16.7939453,25.0182568 15.6214844,26.0571152 C15.3099609,26.3310999 14.9134766,26.4795082 14.5,26.4795082 Z M8.09960938,2.19191215 C6.34375,2.19191215 4.72382813,2.89970578 3.55136719,4.18400875 C2.35625,5.49114376 1.69921875,7.28916791 1.69921875,9.26414047 C1.69921875,11.3418573 2.46386719,13.2026696 4.18574219,15.2918024 C5.8453125,17.312439 8.32050781,19.4358199 11.1808594,21.8902656 L11.1865234,21.8959736 C12.1890625,22.7578836 13.321875,23.7282458 14.5,24.7671042 C15.6894531,23.7225378 16.8222656,22.7521756 17.8248047,21.8902656 C20.6851563,19.4301119 23.1546875,17.312439 24.8199219,15.2918024 C26.5361328,13.2026696 27.3064453,11.3418573 27.3064453,9.26414047 C27.3064453,7.29487592 26.6494141,5.49114376 25.4542969,4.18400875 C24.2761719,2.89970578 22.65625,2.19191215 20.9003906,2.19191215 C19.6089844,2.19191215 18.4251953,2.6028891 17.3830078,3.41913498 C16.4541016,4.14405265 15.8027344,5.06304277 15.4232422,5.70234025 C15.225,6.03340501 14.8851562,6.22747746 14.5,6.22747746 C14.1148437,6.22747746 13.775,6.027697 13.5767578,5.70234025 C13.1972656,5.06304277 12.5458984,4.14405265 11.6169922,3.41913498 C10.5748047,2.6028891 9.39101563,2.19191215 8.09960938,2.19191215 Z" id="Shape"></path>
            </g>
        </g>
    </g>
</svg>
